Numix-Light/16/status/indicator-keyboard-Dv.svg

<?xml version="1.0" encoding="UTF-8" standalone="no"?>
<svg
   xmlns:dc="http://purl.org/dc/elements/1.1/"
   xmlns:cc="http://creativecommons.org/ns#"
   xmlns:rdf="http://www.w3.org/1999/02/22-rdf-syntax-ns#"
   xmlns:svg="http://www.w3.org/2000/svg"
   xmlns="http://www.w3.org/2000/svg"
   xmlns:sodipodi="http://sodipodi.sourceforge.net/DTD/sodipodi-0.dtd"
   xmlns:inkscape="http://www.inkscape.org/namespaces/inkscape"
   viewBox="0 0 16 16"
   id="svg2"
   version="1.1"
   inkscape:version="0.91 r13725"
   sodipodi:docname="indicator-keyboard-Dv.svg">
  <metadata
     id="metadata13">
    <rdf:RDF>
      <cc:Work
         rdf:about="">
        <dc:format>image/svg+xml</dc:format>
        <dc:type
           rdf:resource="http://purl.org/dc/dcmitype/StillImage" />
      </cc:Work>
    </rdf:RDF>
  </metadata>
  <defs
     id="defs11" />
  <sodipodi:namedview
     pagecolor="#ffffff"
     bordercolor="#666666"
     borderopacity="1"
     objecttolerance="10"
     gridtolerance="10"
     guidetolerance="10"
     inkscape:pageopacity="0"
     inkscape:pageshadow="2"
     inkscape:window-width="640"
     inkscape:window-height="480"
     id="namedview9"
     showgrid="false"
     inkscape:zoom="14.75"
     inkscape:cx="8"
     inkscape:cy="8"
     inkscape:window-x="65"
     inkscape:window-y="24"
     inkscape:window-maximized="0"
     inkscape:current-layer="svg2" />
  <path
     style="fill:#353535;fill-opacity:1"
     d="M 1.5996094 0 C 0.71320937 2.9605947e-16 0 0.71320937 0 1.5996094 L 0 14.400391 C 2.9605947e-16 15.286791 0.71320937 16 1.5996094 16 L 14.400391 16 C 15.286791 16 16 15.286791 16 14.400391 L 16 1.5996094 C 16 0.71320937 15.286791 0 14.400391 0 L 1.5996094 0 z M 4.7011719 4.828125 C 5.2051719 4.828125 5.6659375 4.8933906 6.0859375 5.0253906 C 6.5059375 5.1573906 6.8660156 5.3551406 7.1660156 5.6191406 C 7.4720156 5.8831406 7.7089531 6.213375 7.8769531 6.609375 C 8.0449531 7.005375 8.1289062 7.4680938 8.1289062 7.9960938 C 8.1289062 8.5300937 8.0449531 8.994625 7.8769531 9.390625 C 7.7089531 9.786625 7.4720156 10.116859 7.1660156 10.380859 C 6.8660156 10.644859 6.5059375 10.842609 6.0859375 10.974609 C 5.6659375 11.106609 5.2051719 11.171875 4.7011719 11.171875 C 4.4491719 11.171875 4.1842031 11.156953 3.9082031 11.126953 C 3.6322031 11.102953 3.3896875 11.063766 3.1796875 11.009766 L 3.1796875 4.9980469 C 3.3896875 4.9380469 3.6322031 4.8970469 3.9082031 4.8730469 C 4.1842031 4.8430469 4.4491719 4.828125 4.7011719 4.828125 z M 4.7734375 5.359375 C 4.4494375 5.359375 4.2125 5.3667656 4.0625 5.3847656 C 3.9185 5.4027656 3.8270156 5.415875 3.7910156 5.421875 L 3.7910156 10.578125 C 3.8270156 10.584125 3.9185 10.597234 4.0625 10.615234 C 4.2125 10.633234 4.4494375 10.640625 4.7734375 10.640625 C 5.2234375 10.640625 5.6151719 10.580937 5.9511719 10.460938 C 6.2871719 10.334937 6.568875 10.157688 6.796875 9.9296875 C 7.024875 9.7016875 7.1965469 9.4255625 7.3105469 9.1015625 C 7.4245469 8.7715625 7.4824219 8.4040937 7.4824219 7.9960938 C 7.4824219 7.5880938 7.4245469 7.2224375 7.3105469 6.8984375 C 7.1965469 6.5744375 7.024875 6.2983125 6.796875 6.0703125 C 6.568875 5.8423125 6.2871719 5.666875 5.9511719 5.546875 C 5.6151719 5.420875 5.2234375 5.359375 4.7734375 5.359375 z M 8.859375 6.4648438 L 9.4804688 6.4648438 C 9.5524687 6.7828437 9.6401875 7.1261875 9.7421875 7.4921875 C 9.8501875 7.8521875 9.963984 8.2122656 10.083984 8.5722656 C 10.209984 8.9262656 10.338703 9.2714219 10.470703 9.6074219 C 10.602703 9.937422 10.731422 10.230281 10.857422 10.488281 C 10.983422 10.230281 11.114094 9.937422 11.246094 9.6074219 C 11.378094 9.2714219 11.503047 8.9262656 11.623047 8.5722656 C 11.749047 8.2122656 11.862844 7.8521875 11.964844 7.4921875 C 12.072844 7.1261875 12.162375 6.7828437 12.234375 6.4648438 L 12.820312 6.4648438 C 12.712312 6.8908438 12.592938 7.3106094 12.460938 7.7246094 C 12.328938 8.1386094 12.187109 8.5454063 12.037109 8.9414062 C 11.893109 9.3374062 11.740125 9.7179842 11.578125 10.083984 C 11.422125 10.449984 11.269141 10.795141 11.119141 11.119141 L 10.560547 11.119141 C 10.404547 10.795141 10.24975 10.449984 10.09375 10.083984 C 9.9377497 9.7179842 9.7847656 9.3374062 9.6347656 8.9414062 C 9.4907656 8.5454062 9.3527031 8.1386094 9.2207031 7.7246094 C 9.0887031 7.3106094 8.967375 6.8908437 8.859375 6.4648438 z "
     id="path4" />
</svg>

<svg xmlns="http://www.w3.org/2000/svg" viewBox="0 0 16 16">
 <path d="m 1.6 0 c -0.886 0 -1.6 0.713 -1.6 1.6 l 0 12.801 c 0 0.886 0.713 1.6 1.6 1.6 l 12.801 0 c 0.886 0 1.6 -0.713 1.6 -1.6 l 0 -12.801 c 0 -0.886 -0.713 -1.6 -1.6 -1.6 l -12.801 0 z m 3.102 4.828 c 0.504 0 0.965 0.065 1.385 0.197 c 0.42 0.132 0.78 0.33 1.08 0.594 c 0.306 0.264 0.543 0.594 0.711 0.99 c 0.168 0.396 0.252 0.859 0.252 1.387 c 0 0.534 -0.084 0.999 -0.252 1.395 c -0.168 0.396 -0.405 0.726 -0.711 0.99 c -0.3 0.264 -0.66 0.462 -1.08 0.594 c -0.42 0.132 -0.881 0.197 -1.385 0.197 c -0.252 0 -0.517 -0.015 -0.793 -0.045 c -0.276 -0.024 -0.519 -0.063 -0.729 -0.117 l 0 -6.01 c 0.21 -0.06 0.453 -0.101 0.729 -0.125 c 0.276 -0.03 0.541 -0.045 0.793 -0.045 z m 0.072 0.531 c -0.324 0 -0.561 0.007 -0.711 0.025 c -0.144 0.018 -0.235 0.031 -0.271 0.037 l 0 5.156 c 0.036 0.006 0.127 0.019 0.271 0.037 c 0.15 0.018 0.387 0.025 0.711 0.025 c 0.45 0 0.842 -0.06 1.178 -0.18 c 0.336 -0.126 0.618 -0.303 0.846 -0.531 c 0.228 -0.228 0.4 -0.504 0.514 -0.828 c 0.114 -0.33 0.172 -0.697 0.172 -1.105 c 0 -0.408 -0.058 -0.774 -0.172 -1.098 c -0.114 -0.324 -0.286 -0.6 -0.514 -0.828 c -0.228 -0.228 -0.51 -0.403 -0.846 -0.523 c -0.336 -0.126 -0.728 -0.188 -1.178 -0.188 z m 4.086 1.105 l 0.621 0 c 0.072 0.318 0.16 0.661 0.262 1.027 c 0.108 0.36 0.222 0.72 0.342 1.08 c 0.126 0.354 0.255 0.699 0.387 1.035 c 0.132 0.33 0.261 0.623 0.387 0.881 c 0.126 -0.258 0.257 -0.551 0.389 -0.881 c 0.132 -0.336 0.257 -0.681 0.377 -1.035 c 0.126 -0.36 0.24 -0.72 0.342 -1.08 c 0.108 -0.366 0.198 -0.709 0.27 -1.027 l 0.586 0 c -0.108 0.426 -0.227 0.846 -0.359 1.26 c -0.132 0.414 -0.274 0.821 -0.424 1.217 c -0.144 0.396 -0.297 0.777 -0.459 1.143 c -0.156 0.366 -0.309 0.711 -0.459 1.035 l -0.559 0 c -0.156 -0.324 -0.311 -0.669 -0.467 -1.035 c -0.156 -0.366 -0.309 -0.747 -0.459 -1.143 c -0.144 -0.396 -0.282 -0.803 -0.414 -1.217 c -0.132 -0.414 -0.253 -0.834 -0.361 -1.26 z" style="fill:#353535;fill-opacity:1"/>
</svg>
